X:1
T:Title
%%score { 1 | 2 }
L:1/8
Q:1/4=100
M:6/8
K:D
V:1 treble nm="Grand Piano"
V:2 bass 
V:1
 [FA]>[GB][FA] [EG][DF][CE] | [DF]3 .[FA]3 | [Bd]>[Ac][GB] [FA][Fd][A,DF] | [A,CE]6 | %4
w: A.~J.~Abbey * * * * *||||
 [F,D]>[F,D][F,=CD] [G,B,D][K:treble][B,DG][DGB] | [DFA]3 .[A,DF]3 | %6
w: ||
 [A,CE][CEA][EAc] [Ac][D^GB][B,EG] | [CEA]6 | [Ec][Fd][Ge] [Ge][Fd][Ec] | [Fd]3 .[FA]3 | %10
w: ||||
 [GB][Ac][Bd] [GB][FA]F | E6 | AGF FGA | B3 .d3 | A>BA [CFA][CEG][A,CE] | F6 | AGF FGA | B3 .d3 | %18
w: ||||||||
 AAd [Gc]>[GB][Gc][Q:1/4=94][Q:1/4=88][Q:1/4=81] | [Fd]6 |] %20
w: ||
V:2
 [D,D]>[D,D][D,A,] [A,,A,][A,,A,][A,,A,] | [D,A,]3 .[D,D]3 | [D,D]>[D,D][D,D] [D,D][D,A,]D, | %3
 A,,6 | B,,>B,,G,, G,,G,,G,, | D,3 .D,3 | E,E,E, EE,E, | A,,6 | A,A,A, [A,,A,][A,,A,][A,,A,] | %9
 [D,A,]3 .[D,D]3 | [G,D][G,D][G,D] [D,D][D,D][F,A,D] | [A,C]6 | %12
 [F,A,D][E,A,C][D,A,D] [D,A,D][E,A,C][F,A,D] | [G,D]3 .[G,B,D]3 | %14
 [A,DF]>[A,DG][A,DF][K:bass] A,,A,,A,, | [D,A,D]6 | [F,A,D][E,A,C][D,A,D] [D,A,D][E,A,C][F,A,D] | %17
 [G,D]3 .[G,B,D]3 | [A,DF][A,DF][A,F][K:bass] [A,,A,]>[A,,A,][A,,A,] | [D,A,]6 |] %20

